icon-themes/sifr_svg/cmd/lc_addfield.svg

<svg viewBox="0 0 24 24" xmlns="http://www.w3.org/2000/svg"><g fill="#555753"><path d="m2 3v6h.4140625l1.5859375 1.585938v-.585938h4v5h-4v-.585938l-1.5859375 1.585938h-.4140625v6h20v-19zm2 2h4v4h-4zm5 0h6v4h-6zm7 0h4v4h-4zm-7 5h6v5h-6zm7 0h4v5h-4zm-12 6h4v4h-4zm5 0h6v4h-6zm7 0h4v4h-4z"/><path d="m1 10v5h1l2-2v-1l-2-2z"/><path d="m4 10v.585938l1 1v1.828124l-1 1v.585938h16v-5z" opacity=".35"/></g></svg>

<svg xmlns="http://www.w3.org/2000/svg" viewBox="0 0 24 24">
  <path
     style="fill:#555753"
     d="M 2 3 L 2 9 L 2.4140625 9 L 4 10.585938 L 4 10 L 8 10 L 8 15 L 4 15 L 4 14.414062 L 2.4140625 16 L 2 16 L 2 22 L 22 22 L 22 3 L 2 3 z M 4 5 L 8 5 L 8 9 L 4 9 L 4 5 z M 9 5 L 15 5 L 15 9 L 9 9 L 9 5 z M 16 5 L 20 5 L 20 9 L 16 9 L 16 5 z M 9 10 L 15 10 L 15 15 L 9 15 L 9 10 z M 16 10 L 20 10 L 20 15 L 16 15 L 16 10 z M 4 16 L 8 16 L 8 20 L 4 20 L 4 16 z M 9 16 L 15 16 L 15 20 L 9 20 L 9 16 z M 16 16 L 20 16 L 20 20 L 16 20 L 16 16 z "
     />
  <path
     style="fill:#555753"
     d="m 1,10 v 5 H 2 L 4,13 V 12 L 2,10 Z"
     />
  <path
     style="fill:#555753;opacity:0.35"
     d="M 4 10 L 4 10.585938 L 5 11.585938 L 5 13.414062 L 4 14.414062 L 4 15 L 20 15 L 20 10 L 4 10 z "
     />
</svg>
